public/images/popup/smile.svg

<svg width="10" height="10" viewBox="0 0 10 10" fill="none" xmlns="http://www.w3.org/2000/svg">
    <g clip-path="url(#clip0_1419_343)">
        <path opacity="0.36" d="M10.8509 5.71417C10.8509 6.75584 10.3822 7.58917 9.80924 7.58917C9.23633 7.58917 8.76758 6.75584 8.76758 5.71417C8.76758 4.67251 9.23633 3.83917 9.80924 3.83917C10.3822 3.83917 10.8509 4.67251 10.8509 5.71417Z" fill="white"/>
        <path d="M10 6.62013C8.33877 8.33666 6.40297 10.1122 4 9.5C1.66553 8.90526 0.598553 6.12925 0 4C0.679189 5.42453 1.89611 6.83662 4.5 7.5C7.61173 8.29276 8.30906 7.6157 10 6.62013Z" fill="#003B48"/>
        <path d="M8 3C8 4.11111 7.55 5 7 5C6.45 5 6 4.11111 6 3C6 1.88889 6.45 1 7 1C7.55 1 8 1.88889 8 3Z" fill="#003B48"/>
        <path d="M1 3C1.67276 0.383365 3.39397 0.314507 4 2.91001C2.93178 1.56962 1.94958 1.95616 1 3Z" fill="#003B48"/>
    </g>
    <defs>
        <clipPath id="clip0_1419_343">
            <rect width="10" height="10" fill="white"/>
        </clipPath>
    </defs>
</svg>

<svg width="10" height="10" fill="none" xmlns="http://www.w3.org/2000/svg"><g clip-path="url(#a)"><path opacity=".36" d="M10.85 5.714c0 1.042-.468 1.875-1.04 1.875-.574 0-1.042-.833-1.042-1.875 0-1.041.468-1.875 1.041-1.875s1.042.834 1.042 1.875z" fill="#fff"/><path d="M10 6.62C8.339 8.337 6.403 10.112 4 9.5 1.666 8.905.599 6.13 0 4c.68 1.425 1.896 2.837 4.5 3.5 3.112.793 3.81.116 5.5-.88zM8 3c0 1.111-.45 2-1 2s-1-.889-1-2 .45-2 1-2 1 .889 1 2zM1 3C1.673.383 3.394.315 4 2.91 2.932 1.57 1.95 1.956 1 3z" fill="#003B48"/></g><defs><clipPath id="a"><path fill="#fff" d="M0 0h10v10H0z"/></clipPath></defs></svg>
